img/svg/puzzle.svg

<svg width="78" height="78" viewBox="0 0 78 78" fill="none" xmlns="http://www.w3.org/2000/svg">
<g clip-path="url(#clip0)">
<path d="M50.3556 63.2721C49.7599 63.8678 49.7599 64.8318 50.3556 65.4263C50.9495 66.022 51.9153 66.022 52.5092 65.4263C53.1049 64.8318 53.1049 63.8678 52.5092 63.2721C51.9153 62.6782 50.9495 62.6782 50.3556 63.2721Z" fill="white"/>
<path d="M16.8732 29.7987C16.2787 30.3944 16.2787 31.359 16.8732 31.9547C17.4689 32.5486 18.433 32.5486 19.0269 31.9547C19.6226 31.359 19.6226 30.3944 19.0269 29.7987C18.433 29.2048 17.4689 29.2048 16.8732 29.7987Z" fill="white"/>
<path d="M69.9413 46.2345C69.1432 45.4359 67.7793 45.7549 67.4199 46.8278C66.8878 48.415 66.0184 49.7634 65.4346 50.346C64.2456 51.5356 62.3169 51.5362 61.1273 50.346C59.9389 49.1582 59.9389 47.2254 61.1273 46.037C61.7099 45.4538 63.0596 44.5849 64.6455 44.0535C65.7173 43.6947 66.038 42.3301 65.2382 41.5309L58.3852 34.6874C56.6029 32.9056 53.703 32.9056 51.9213 34.6874L47.2391 39.3695C46.7047 38.3603 46.0774 37.4599 45.4591 36.841C43.0788 34.4606 39.2226 34.4576 36.8416 36.8404C34.4589 39.2214 34.4589 43.077 36.841 45.4591C37.4599 46.0774 38.3603 46.7047 39.3696 47.2391L34.6874 51.9212C32.9015 53.7071 32.9003 56.5981 34.688 58.3863L39.9563 63.6469C38.9476 64.1813 38.0473 64.808 37.4296 65.4263C35.048 67.8066 35.0468 71.6617 37.429 74.0438C39.8129 76.4289 43.6691 76.423 46.0453 74.045C46.6642 73.4273 47.2914 72.5257 47.827 71.5159L52.9662 76.6551C54.7521 78.441 57.6443 78.4416 59.4301 76.6551L64.1129 71.9729C64.6473 72.9822 65.2739 73.8831 65.8923 74.5014C68.2732 76.8824 72.1288 76.8842 74.5104 74.5014C76.8866 72.1252 76.8866 68.2589 74.5104 65.8833C73.8921 65.265 72.9911 64.6384 71.9818 64.1034L76.6652 59.4206C78.4457 57.6377 78.4451 54.7384 76.664 52.9573L69.9413 46.2345ZM74.5098 57.267L68.2441 63.5321C67.8709 63.9052 67.7174 64.445 67.8382 64.9585C67.959 65.4721 68.3375 65.8863 68.8374 66.0541C70.4233 66.5849 71.773 67.4544 72.3555 68.0375C73.5439 69.2253 73.5439 71.1588 72.3555 72.3472C71.1654 73.538 69.2379 73.538 68.0465 72.3466C67.4639 71.764 66.5951 70.4149 66.063 68.8278C65.8952 68.3279 65.481 67.9501 64.9675 67.8293C64.4545 67.7085 63.9142 67.862 63.5416 68.2351L57.2759 74.5003C56.6802 75.0959 55.7162 75.0959 55.1205 74.5003L48.3977 67.7781C47.5943 66.9747 46.234 67.3038 45.8763 68.3708C45.3443 69.9585 44.4749 71.307 43.8911 71.8902C42.7015 73.081 40.7746 73.0816 39.5838 71.8896C38.3924 70.6982 38.3918 68.7719 39.5838 67.5805C40.1664 66.9973 41.5161 66.1279 43.1014 65.5971C44.1732 65.2376 44.4945 63.8737 43.6941 63.0745L36.8416 56.2309C36.2465 55.6352 36.2459 54.6712 36.8416 54.0755L43.1073 47.8097C43.9054 47.0111 43.5864 45.6472 42.5134 45.2883C40.9281 44.7569 39.5784 43.8881 38.9952 43.3049C37.8068 42.1165 37.8009 40.189 38.9958 38.9952C40.186 37.8039 42.1129 37.8039 43.3049 38.9952C43.8881 39.5784 44.7569 40.9281 45.2884 42.5134C45.6466 43.5846 47.01 43.9071 47.8098 43.1073L54.0755 36.8416C54.6694 36.2471 55.6364 36.2471 56.2315 36.8422L61.4999 42.1034C60.4912 42.6378 59.5908 43.2638 58.9731 43.8821C56.5969 46.2583 56.5969 50.1247 58.9731 52.5003C61.3487 54.8759 65.2138 54.8759 67.5883 52.5009C68.2072 51.8832 68.835 50.9822 69.3706 49.9717L74.5098 55.1109C75.1037 55.7054 75.1031 56.6725 74.5098 57.267Z" fill="white"/>
<path d="M32.5329 28.2255C33.1161 28.8075 33.9856 30.1566 34.517 31.7431C34.8752 32.8136 36.2386 33.1362 37.0384 32.3364L43.3041 26.0707C45.09 24.2848 45.0906 21.3932 43.3041 19.6068L38.0429 14.3455C39.0522 13.8111 39.9532 13.1845 40.5715 12.5662C42.9524 10.1852 42.9542 6.33083 40.5715 3.94808C38.1917 1.56652 34.3355 1.56533 31.9545 3.94808C31.3356 4.56697 30.709 5.46795 30.174 6.47663L25.0342 1.33681C23.2537 -0.444302 20.3538 -0.444302 18.5703 1.33681L13.8881 6.019C13.3531 5.00972 12.7265 4.10875 12.1088 3.49045C9.73256 1.11484 5.86624 1.11484 3.49063 3.49045C1.10848 5.87261 1.10788 9.72643 3.49063 12.1092C4.10834 12.7269 5.00931 13.3535 6.01918 13.8885L1.3358 18.5713C-0.444716 20.3542 -0.444716 23.2535 1.3364 25.0352L6.47621 30.1744C5.46694 30.7094 4.56656 31.336 3.94766 31.9549C1.5661 34.3347 1.56432 38.1909 3.94766 40.5719C6.32923 42.9534 10.183 42.954 12.5652 40.5719C13.1841 39.953 13.8107 39.0526 14.3451 38.0433L19.6063 43.3045C20.4972 44.1954 21.6677 44.6411 22.8383 44.6411C24.0088 44.6411 25.1794 44.1954 26.0702 43.3045L32.336 37.0388C32.7091 36.6657 32.8626 36.1265 32.7418 35.613C32.621 35.0994 32.2425 34.6846 31.7421 34.5174C30.1561 33.986 28.8071 33.1166 28.2239 32.5322C27.0486 31.3575 27.0182 29.4294 28.2245 28.2243C29.4141 27.0341 31.3404 27.0323 32.5329 28.2255ZM26.069 34.6858C26.6975 35.3154 27.5889 35.9391 28.5952 36.4711L23.916 41.1503C23.3215 41.7442 22.3551 41.7442 21.7606 41.1503L14.9164 34.3055C14.1124 33.5016 12.7515 33.833 12.3944 34.8994C11.8636 36.4848 10.9942 37.8344 10.411 38.417C9.22019 39.6084 7.29387 39.6096 6.10131 38.417C4.91112 37.2275 4.90993 35.3005 6.1019 34.1098C6.68569 33.526 8.03536 32.6559 9.62009 32.1251C10.6889 31.7669 11.015 30.4047 10.2134 29.6031L3.49063 22.8804C2.89673 22.2865 2.89733 21.3194 3.49063 20.7255L9.75637 14.4598C10.555 13.6618 10.236 12.2978 9.16306 11.9384C7.57654 11.4064 6.22747 10.5375 5.64487 9.95435C4.45349 8.76357 4.45349 6.83666 5.64487 5.64528C6.83267 4.45688 8.76613 4.45688 9.95394 5.64528C10.5365 6.22788 11.4054 7.57755 11.9374 9.16407C12.2962 10.2346 13.659 10.5572 14.4588 9.75737L20.7239 3.49224C21.319 2.89774 22.286 2.89774 22.8799 3.49164L29.6027 10.2144C30.4013 11.0124 31.7647 10.6935 32.1241 9.6211C32.6549 8.03577 33.5256 6.6861 34.1093 6.10172C35.2989 4.91153 37.2258 4.91094 38.4166 6.10231C39.608 7.29369 39.608 9.22001 38.4166 10.4114C37.8334 10.9946 36.4838 11.864 34.8984 12.3948C33.8291 12.7531 33.5041 14.1158 34.3051 14.9168L41.1499 21.7616C41.745 22.3567 41.745 23.3213 41.1499 23.9164L36.4671 28.5986C35.9321 27.5893 35.3055 26.6884 34.6866 26.0707C32.3074 23.6897 28.4512 23.6873 26.0702 26.0701C23.6851 28.4534 23.6905 32.3096 26.069 34.6858Z" fill="white"/>
<path d="M9.95232 20.7253C9.35723 20.1302 8.39258 20.1308 7.79809 20.7253C7.20299 21.3204 7.20359 22.285 7.79809 22.8801L12.5648 27.645C13.1599 28.2401 14.1245 28.2401 14.719 27.645C15.3141 27.0499 15.3141 26.0853 14.719 25.4902L9.95232 20.7253Z" fill="white"/>
<path d="M43.3025 54.0755C42.7068 53.4816 41.7422 53.4828 41.1483 54.0779C40.5538 54.6736 40.5549 55.6383 41.1506 56.2328L46.0483 61.1197C46.6422 61.7118 47.6062 61.7148 48.2025 61.1173C48.797 60.5216 48.7958 59.5569 48.2001 58.9625L43.3025 54.0755Z" fill="white"/>
</g>
<defs>
<clipPath id="clip0">
<rect width="78" height="78" fill="white"/>
</clipPath>
</defs>
</svg>

<svg width="78" height="78" viewBox="0 0 78 78" fill="none" xmlns="http://www.w3.org/2000/svg"><g clip-path="url(#a)" fill="#fff"><path d="M50.356 63.272a1.522 1.522 0 0 0 0 2.154 1.52 1.52 0 0 0 2.153 0 1.524 1.524 0 0 0-2.154-2.154zM16.873 29.799a1.524 1.524 0 1 0 2.154 2.154 1.524 1.524 0 0 0-2.154-2.154z"/><path d="M69.941 46.234a1.524 1.524 0 0 0-2.521.594c-.532 1.587-1.402 2.935-1.985 3.518a3.045 3.045 0 0 1-4.308 0 3.05 3.05 0 0 1 0-4.309c.583-.583 1.933-1.452 3.518-1.983a1.525 1.525 0 0 0 .593-2.523l-6.853-6.844a4.576 4.576 0 0 0-6.464 0L47.24 39.37c-.534-1.01-1.162-1.91-1.78-2.529a6.09 6.09 0 0 0-8.617 0 6.09 6.09 0 0 0-.001 8.618c.619.618 1.52 1.246 2.529 1.78l-4.683 4.682a4.569 4.569 0 0 0 .001 6.465l5.268 5.26c-1.008.535-1.909 1.162-2.526 1.78a6.09 6.09 0 0 0-.001 8.618 6.089 6.089 0 0 0 8.616.001c.62-.618 1.246-1.52 1.782-2.53l5.14 5.14a4.568 4.568 0 0 0 6.463 0l4.683-4.682c.534 1.01 1.16 1.91 1.78 2.528a6.09 6.09 0 0 0 8.617 0 6.1 6.1 0 0 0 0-8.618c-.618-.618-1.519-1.245-2.528-1.78l4.683-4.682a4.577 4.577 0 0 0-.001-6.464l-6.723-6.723zm4.569 11.033l-6.266 6.265a1.524 1.524 0 0 0 .593 2.522c1.586.53 2.936 1.4 3.519 1.983a3.05 3.05 0 0 1 0 4.31 3.045 3.045 0 0 1-4.31 0c-.582-.583-1.45-1.932-1.983-3.52a1.524 1.524 0 0 0-2.521-.592L57.276 74.5a1.523 1.523 0 0 1-2.156 0l-6.722-6.722a1.524 1.524 0 0 0-2.522.593c-.532 1.588-1.401 2.936-1.985 3.52a3.042 3.042 0 0 1-4.307-.001 3.044 3.044 0 0 1 0-4.31c.582-.583 1.932-1.452 3.517-1.983a1.524 1.524 0 0 0 .593-2.522l-6.852-6.844a1.524 1.524 0 0 1 0-2.156l6.265-6.265a1.524 1.524 0 0 0-.594-2.522c-1.585-.531-2.935-1.4-3.518-1.983a3.045 3.045 0 0 1 0-4.31 3.045 3.045 0 0 1 4.31 0c.583.583 1.452 1.933 1.983 3.518a1.524 1.524 0 0 0 2.522.594l6.265-6.265a1.526 1.526 0 0 1 2.156 0l5.269 5.261c-1.009.535-1.91 1.16-2.527 1.78a6.1 6.1 0 0 0 0 8.617 6.099 6.099 0 0 0 8.615 0c.62-.617 1.247-1.518 1.783-2.528l5.139 5.139a1.528 1.528 0 0 1 0 2.156zM32.533 28.226c.583.582 1.453 1.93 1.984 3.517a1.524 1.524 0 0 0 2.521.593l6.266-6.265a4.568 4.568 0 0 0 0-6.464l-5.261-5.261c1.01-.535 1.91-1.162 2.529-1.78a6.09 6.09 0 0 0 0-8.618 6.088 6.088 0 0 0-8.618 0c-.618.619-1.245 1.52-1.78 2.529l-5.14-5.14a4.578 4.578 0 0 0-6.464 0l-4.682 4.682c-.535-1.01-1.162-1.91-1.78-2.529a6.102 6.102 0 0 0-8.617 0 6.09 6.09 0 0 0 0 8.62c.617.617 1.518 1.244 2.528 1.779L1.336 18.57a4.578 4.578 0 0 0 0 6.464l5.14 5.14c-1.01.534-1.91 1.161-2.528 1.78a6.088 6.088 0 0 0 0 8.617 6.09 6.09 0 0 0 8.617 0c.62-.619 1.246-1.52 1.78-2.529l5.261 5.261a4.557 4.557 0 0 0 3.232 1.337c1.17 0 2.341-.446 3.232-1.337l6.266-6.265a1.523 1.523 0 0 0-.594-2.522c-1.586-.531-2.935-1.4-3.518-1.985a3.044 3.044 0 0 1 0-4.308 3.043 3.043 0 0 1 4.309.002zm-6.464 6.46c.629.63 1.52 1.253 2.526 1.785l-4.679 4.68a1.526 1.526 0 0 1-2.155 0l-6.845-6.846a1.524 1.524 0 0 0-2.522.594c-.53 1.586-1.4 2.935-1.983 3.518a3.044 3.044 0 0 1-4.31 0 3.043 3.043 0 0 1 0-4.307c.585-.584 1.934-1.454 3.52-1.985a1.524 1.524 0 0 0 .592-2.522L3.491 22.88a1.526 1.526 0 0 1 0-2.154l6.265-6.266a1.524 1.524 0 0 0-.593-2.522c-1.586-.532-2.936-1.4-3.518-1.984a3.044 3.044 0 0 1 0-4.309 3.05 3.05 0 0 1 4.309 0c.582.583 1.451 1.933 1.983 3.52a1.524 1.524 0 0 0 2.522.592l6.265-6.265a1.527 1.527 0 0 1 2.156 0l6.723 6.722c.798.798 2.162.48 2.521-.593.53-1.585 1.402-2.935 1.985-3.52a3.043 3.043 0 0 1 4.308.001 3.044 3.044 0 0 1 0 4.31c-.584.583-1.933 1.452-3.519 1.983a1.525 1.525 0 0 0-.593 2.522l6.845 6.845c.595.595.595 1.56 0 2.154L36.467 28.6c-.535-1.01-1.161-1.91-1.78-2.528a6.088 6.088 0 0 0-8.617 0 6.087 6.087 0 0 0-.001 8.615z"/><path d="M9.952 20.725a1.523 1.523 0 1 0-2.154 2.155l4.767 4.765a1.523 1.523 0 1 0 2.154-2.155l-4.767-4.765zm33.351 33.35a1.524 1.524 0 0 0-2.152 2.158l4.897 4.887a1.523 1.523 0 1 0 2.152-2.157l-4.898-4.888z"/></g><defs><clipPath id="a"><path fill="#fff" d="M0 0h78v78H0z"/></clipPath></defs></svg>
